src/pos-icons/google-spreadsheet.svg

<svg height="24" viewBox="0 0 24 24" width="24" xmlns="http://www.w3.org/2000/svg"><path d="m19 11v-2h-8v-4h-2v4h-4v2h4v8h2v-8zm0-8c.5 0 1 .2 1.39.61.41.39.61.89.61 1.39v14c0 .5-.2 1-.61 1.39-.39.41-.89.61-1.39.61h-14c-.5 0-1-.2-1.39-.61-.41-.39-.61-.89-.61-1.39v-14c0-.5.2-1 .61-1.39.39-.41.89-.61 1.39-.61z"/></svg>

<?xml version="1.0" encoding="UTF-8"?><!DOCTYPE svg PUBLIC "-//W3C//DTD SVG 1.1//EN" "http://www.w3.org/Graphics/SVG/1.1/DTD/svg11.dtd"><svg xmlns="http://www.w3.org/2000/svg" xmlns:xlink="http://www.w3.org/1999/xlink" version="1.1" id="mdi-google-spreadsheet" width="24" height="24" viewBox="0 0 24 24"><path d="M19,11V9H11V5H9V9H5V11H9V19H11V11H19M19,3C19.5,3 20,3.2 20.39,3.61C20.8,4 21,4.5 21,5V19C21,19.5 20.8,20 20.39,20.39C20,20.8 19.5,21 19,21H5C4.5,21 4,20.8 3.61,20.39C3.2,20 3,19.5 3,19V5C3,4.5 3.2,4 3.61,3.61C4,3.2 4.5,3 5,3H19Z" /></svg>
